X:195
T: Heirathslust
N: A0232B
O: Europa, Mitteleuropa, Deutschland
N: M Franck, Fasc. quodl. 1611 No. 3
R: Romanze, Ballade, Lied
M: 4/4
L: 1/8
K: G
G2 | _B2B2c2c2 | d2d2d4 |
_Bcd2Bcd2 | c2_B2A2
d2 | d2A2_B2G2 | G2G2A4 |
_B2A2G2G2 | G2F2G2

@@@ Tune index: 195
